Resources/BaseGame_uiHost/Media/DLC/Game.svg

<svg xmlns="http://www.w3.org/2000/svg" xml:space="preserve" fill-rule="evenodd" stroke-linejoin="round" stroke-miterlimit="2" clip-rule="evenodd" viewBox="0 0 64 64">
  <g id="blue" fill-rule="nonzero">
    <path fill="#3152ff" d="M59.2 0H4.8C2.15 0 0 2.15 0 4.8v54.4C0 61.85 2.15 64 4.8 64h54.4c2.65 0 4.8-2.15 4.8-4.8V4.8C64 2.15 61.85 0 59.2 0Z"/>
    <path fill="#001626" d="M54.144 61.853H9.942a7.754 7.754 0 0 1-7.753-7.754V9.901a7.754 7.754 0 0 1 7.753-7.754h41.3L61.894 12.8v41.299a7.754 7.754 0 0 1-7.753 7.754h.003Z"/>
  </g>
  <g id="white">
    <path fill="#fff" fill-rule="nonzero" d="m31.04 51.35-14.815-8.512a2.948 2.948 0 0 1-1.475-2.549v-6.67l16.29 9.361v8.37Zm-9.086-25.094 9.086-5.239V12.65l-14.825 8.6a2.947 2.947 0 0 0-1.465 2.544v6.449c0 .753.4 1.452 1.049 1.833l6.15 3.614.005-9.434ZM32.96 21.02l16.29 9.36v-6.67a2.945 2.945 0 0 0-1.476-2.55L32.96 12.65v8.37Zm9.086 16.722-9.086 5.241v8.367l14.825-8.6a2.949 2.949 0 0 0 1.465-2.544v-6.449c0-.753-.4-1.452-1.049-1.833L42.05 28.31l-.004 9.432Z"/>
  </g>
</svg>

<?xml version="1.0" encoding="UTF-8" standalone="no"?>
<!DOCTYPE svg PUBLIC "-//W3C//DTD SVG 1.1//EN" "http://www.w3.org/Graphics/SVG/1.1/DTD/svg11.dtd">
<svg width="100%" height="100%" viewBox="0 0 64 64" version="1.1" xmlns="http://www.w3.org/2000/svg" xmlns:xlink="http://www.w3.org/1999/xlink" xml:space="preserve" xmlns:serif="http://www.serif.com/" style="fill-rule:evenodd;clip-rule:evenodd;stroke-linejoin:round;stroke-miterlimit:2;">
    <g transform="matrix(3.337099,0,0,3.337099,-111.358574,-38.215717)">
        <g id="white" transform="matrix(0.482659,0,0,0.482659,27.513954,5.59586)">
            <path d="M31.04,51.35L16.225,42.838C15.315,42.313 14.752,41.34 14.75,40.289L14.75,33.619L31.04,42.98L31.04,51.35ZM21.954,26.256L31.04,21.017L31.04,12.65L16.215,21.25C15.31,21.776 14.751,22.747 14.75,23.794L14.75,30.243C14.75,30.996 15.15,31.695 15.799,32.076L21.949,35.69L21.954,26.256ZM32.96,21.02L49.25,30.38L49.25,23.71C49.249,22.659 48.685,21.684 47.774,21.16L32.96,12.65L32.96,21.02ZM42.046,37.742L32.96,42.983L32.96,51.35L47.785,42.75C48.69,42.223 49.248,41.253 49.25,40.206L49.25,33.757C49.25,33.004 48.85,32.305 48.201,31.924L42.05,28.31L42.046,37.742Z" style="fill:url(#_Linear1);fill-rule:nonzero;"/>
        </g>
    </g>
    <defs>
        <linearGradient id="_Linear1" x1="0" y1="0" x2="1" y2="0" gradientUnits="userSpaceOnUse" gradientTransform="matrix(0,38.7,-38.7,0,32,12.65)"><stop offset="0" style="stop-color:rgb(49,82,255);stop-opacity:1"/><stop offset="1" style="stop-color:rgb(0,193,255);stop-opacity:1"/></linearGradient>
    </defs>
</svg>
